X: 1969
T: Yaralı Gönlümde...
C: Ömer Sami Güpgüp
O: Turkey
F: http://compmusic.upf.edu/node/140
N: rast--sarki--sofyan--yarali_gonlumde--omer_sami_gupgup
N: makam= rast
N: form= sarki
N: usul= sofyan = 4/4
M: 4/4
L: 1/16
K: C _1/4B ^f  
Q: 1/4=84
%%MIDI tuningsystem comma53
z2G2 A2B2 c4 B4  | A6z2 c3/2B/AB A4  | \
w:  Ya ra lı  gön lüm  |  de  SAZ  | 
z2d6 d4 ^c4  | B2d6 d^cBc d4  | 
w:  her  gün  bir   |  o lay   SAZ  | 
z4 d2d2 g4 g4  | z2a2 g2=f2 e2d2 c2d2  | \
w:  Ya şa yan  sen   |  ol *  *  san   | 
z2d4d2 f4 _7/8e4  | d8 GABc d4  | 
w:  sabr_ e der  miy  |  din   SAZ  | 
z2g2 g2g2 d2e2 d4  | z2c2 c2c2 A2B2 G4  | \
w:   |   | 
z2G2 A2B2 c4 B4  | A6z2 c3/2B/AB A4  | 
w:  Ya ra lı  gön lüm  |  de  SAZ  | 
z2d6 d4 ^c4  | B2d6 d^cBc d4  | z4 d2d2 g4 g4  | \
w:  her  gün  bir   |  o lay   SAZ  |  Ya şa yan  sen   | 
z2a2 g2=f2 e2d2 c2d2  | 
w:  ol *  *  san   | 
z2d4d2 f4 _7/8e4  | d8 GABc d4  | z2g2 g2g2 d2e2 d4  | \
w:  sabr_ e der  miy  |  din   SAZ  |   | 
z2e2 e2e2 B2c2 d4  | 
w:   | 
d2d6 g4 g4  | z2c'3ba2 g=ffe f4  | d2c2 B2^A2 B8  | \
w:  Ben_ et tim  sen   |  af *  *  fet   |  de me si  ko lay    | 
d2c2 B2^A2 B8  | 
w:  SAZ  | 
d2d4_7/8e2 f4 e4  | d8 f3/2_7/8e/de d4  | \
w:  Ye rim de  sen  ol  |  san  SAZ  | 
z2B4A2 B4 A4  | G8 GABc d4  | 
w:  af fe der  miy  |  din   SAZ  | 
z2g2 g2g2 d2e2 d4  | z2e2 e2e2 B2c2 d4  | \
w:   |   | 
d2d6 g4 g4  | z2c'3ba2 g=ffe f4  | 
w:  Ben_ et tim  sen   |  af *  *  fet   | 
d2c2 B2^A2 B8  | d2c2 B2^A2 B8  | d2d4_7/8e2 f4 e4  | \
w:  de me si  ko lay    |  SAZ  |  Ye rim de  sen  ol  | 
d8 f3/2_7/8e/de d4  | 
w:  san  SAZ  | 
z2B4A2 B4 A4  | G8 GABc d4  | z2g2 g2g2 d2e2 d4  | \
w:  af fe der  miy  |  din   SAZ  |   | 
z2c'2 c'2c'2 a2b2 g4  | 
w:   | 
z4 g2g2 g4 a4  | a2b6 b2ag g4  | z2c'4b2 c'8  | \
w:  A cı rım   |  uğ *  run *  *  da   |  dök tü ğüm   | 
b2a2 z4 b3/2a/gb a4  | 
w:  ya şa   SAZ  | 
a2_b4b2 c'4 a4  | g2b6 g2b2 z4  | g2a4g2 g2f2 f2_7/8e2  | \
w:  Ba har *  *  da   |  öm *  rü mü   |  dön *  *  dür *  dün   | 
g2f2 z4 g3/2f/_7/8eg f4  | 
w:  kı şa   SAZ  | 
g2a4g2 g2f2 _7/8e2d2  | _7/8e8 e3/2d/cd e4  | \
w:  Ö nüm *  de  diz  *  çö  |  küp  SAZ  | 
d4 _7/8e4 f4 g4  | _7/8e2c2 z4 e3/2d/cB c4  | 
w:  yal var man   |  bo şa   SAZ  | 
d2d4_7/8e2 f4 e4  | d8 f3/2_7/8e/de d4  | \
w:  Ye rim de  sen  ol  |  san  SAZ  | 
z2B4A2 B4 A4  | G8 GABc d4  | 
w:  af fe der  miy  |  din   SAZ  | 
z2g2 g2g2 d2e2 d4  | z2e2 e2e2 B2c2 d4  | \
w:   |   | 
d2d6 g4 g4  | z2c'3ba2 g=ffe f4  | 
w:  Ben_ et tim  sen   |  af *  *  fet   | 
d2c2 B2^A2 B8  | d2c2 B2^A2 B8  | d2d4_7/8e2 f4 e4  | \
w:  de me si  ko lay    |  SAZ  |  Ye rim de  sen  ol  | 
d8 f3/2_7/8e/de d4  | 
w:  san  SAZ  | 
z2B4A2 B4 A4  | G8 |
w:  af fe der  miy  |  din    | 


